symbols/web/playlist_add_circle/materialsymbolsoutlined/playlist_add_circle_wght200grad200fill1_40px.svg

<svg xmlns="http://www.w3.org/2000/svg" height="40" width="40"><path d="M24.792 27.667h1.958v-3.084h3.042v-1.958H26.75v-3.042h-1.958v3.042h-3.084v1.958h3.084ZM12.5 24.708h2.792v-2.083H12.5Zm0-5.125h9.25v-1.958H12.5Zm0-5h9.25v-1.958H12.5ZM20 35.875q-3.292 0-6.188-1.25-2.895-1.25-5.041-3.396-2.146-2.146-3.396-5.041-1.25-2.896-1.25-6.188t1.25-6.187q1.25-2.896 3.417-5.063 2.166-2.167 5.041-3.396Q16.708 4.125 20 4.125t6.208 1.229q2.917 1.229 5.063 3.396t3.375 5.063q1.229 2.895 1.229 6.187 0 3.333-1.229 6.188-1.229 2.854-3.375 5.02-2.146 2.167-5.063 3.417-2.916 1.25-6.208 1.25Z"/></svg>

<svg xmlns="http://www.w3.org/2000/svg" height="40" width="40"><path d="M24.792 27.667H26.75V24.583H29.792V22.625H26.75V19.583H24.792V22.625H21.708V24.583H24.792ZM12.5 19.583H21.75V17.625H12.5ZM12.5 14.583H21.75V12.625H12.5ZM12.5 24.708H15.292V22.625H12.5ZM20 35.875Q16.708 35.875 13.792 34.646Q10.875 33.417 8.729 31.271Q6.583 29.125 5.354 26.208Q4.125 23.292 4.125 20Q4.125 16.708 5.354 13.792Q6.583 10.875 8.75 8.708Q10.917 6.542 13.812 5.333Q16.708 4.125 20 4.125Q23.292 4.125 26.208 5.333Q29.125 6.542 31.292 8.708Q33.458 10.875 34.667 13.771Q35.875 16.667 35.875 20Q35.875 23.292 34.667 26.188Q33.458 29.083 31.292 31.25Q29.125 33.417 26.229 34.646Q23.333 35.875 20 35.875Z"/></svg>
